X: 1
T: Porthole Of The Kelp, The
M: 4/4
L: 1/8
R: reel
K: Ddor
|:F3 G F2 DE|FEFG EC C2|F2 DE FGAG|FDEC A,2 DE|
F2 DE FGAB|cAGF EDCE|D2 EG Adde|1 cAGF EDDE:|2 cAGF EDDd||
|:d2 Ad dcAG|FEFG EC C2|d2 Ad dcAG|Adce d2 de|
e2 dc dcAB|cAGF EDCE|D2 EG AddB|1 cAGF EDDd:|2 cAGF EDDE||
